X: 20407
T: John Doherty's Highland
R: barndance
M: 4/4
K: Gdorian
|:B>A||G>dd>^c d>ef>d|(3ccc A>F C>FA<F|
G>dd>^c d>ef>d|(3ccc A>F G2:|
|:G>^F|G>gg>^f g>ab>g|(3fff c>A F>GA>F|
[1 G<gg>f g>ab>g|(3fff c>A B<G:|
[2 c’>ab>g a>fg<d|f<dc>A G2||

